public/img/html.svg

<svg width="87" height="87" viewBox="0 0 87 87" fill="none" xmlns="http://www.w3.org/2000/svg">
<path d="M14.993 10.9185H72.0106L66.8233 69.4622L43.4384 76.0815L20.1876 69.4622L14.993 10.9185V10.9185ZM34.0823 37.3882L33.4551 30.0113L60.7623 30.0186L61.3894 22.9027L25.6106 22.8955L27.5029 44.6382H52.2798L51.3989 53.94L43.5 56.1222L35.4743 53.9291L34.9631 48.2016H27.8799L28.7753 59.5225L43.5 63.4592L58.1015 59.5442L60.1243 37.3918H34.0823V37.3882V37.3882Z" fill="#EEEEEE"/>
</svg>

<svg xmlns="http://www.w3.org/2000/svg" width="87" height="87" fill="none" xmlns:v="https://vecta.io/nano"><path d="M14.993 10.919h57.018l-5.187 58.544-23.385 6.619-23.251-6.619-5.195-58.544h0zm19.089 26.47l-.627-7.377 27.307.007.627-7.116-35.779-.007 1.892 21.743H52.28l-.881 9.302-7.899 2.182-8.026-2.193-.511-5.727H27.88l.895 11.321L43.5 63.459l14.602-3.915 2.023-22.152H34.082v-.004h0z" fill="#eee"/></svg>
